X:184
M:3/2
L:1/4
K:F
A4 B2 |(3::2(c2B  A2) G2 | F4 G2 |(3::2(A2G)  A4 | (B2 A2) G2 |(3::2(c2B  A2) G2 | F4 E2 | F6 | A4 B2 |(3::2(c2B  A2) G2 | F4 G2 | (3::2(A2G)  A4 | (B2 A2) G2 |(3::2(c2B  A2) G2 | F4 E2 | F6 | c4(3::2c2A  | c4(3cd_e  |(3::2(d2c  B2) A2 | A2 G4 | c4(3::2c2A  | c4(3cd_e  |(3::2(d2c  B2) A2 | G6 | A4 B2 |(3::2(c2B  A2) G2 | F4 G2 | (3::2(A2G)  A4 | !sintro!(B2 A2) G2 |(3::2(c2B  A2) G2 | F4 E2 | F6 !eintro!|]
